X:14
T:February reel #1
C: Dale Russ
M:C|
L:1/8
C:
R:reel
K:A
FEFA Bc (3ccc|ecBc eage|fage fecA|BAcB AFFE|
FEFA Bc (3ccc|eage f3g|affe fecA|BAcB AF (3FFF:|
b2fb afec|Bcec effa|bafb a3B|cABG Acea|
b2fb afec|Bcec effg|affe fecA|B2cB AF (3FFF:|
